client/public/assets/app-store.svg

<svg width="212" height="72" viewBox="0 0 212 72" fill="none" xmlns="http://www.w3.org/2000/svg">
<rect x="1.45224" y="1.45981" width="209.667" height="68.7143" rx="9.69048" fill="black"/>
<rect x="1.45224" y="1.45981" width="209.667" height="68.7143" rx="9.69048" stroke="#A6A6A6" stroke-width="1.7619"/>
<path d="M44.0987 37.1614C44.1201 35.5406 44.5611 33.9515 45.3806 32.5418C46.2001 31.1321 47.3716 29.9477 48.7859 29.0987C47.8874 27.8459 46.7021 26.8149 45.3241 26.0876C43.946 25.3603 42.4133 24.9567 40.8475 24.9088C37.5075 24.5666 34.2696 26.8601 32.5675 26.8601C30.8326 26.8601 28.2121 24.9428 25.3902 24.9995C23.565 25.0571 21.7861 25.5753 20.227 26.5036C18.6679 27.4319 17.3816 28.7387 16.4936 30.2966C12.647 36.7987 15.5162 46.3547 19.201 51.6106C21.0446 54.1842 23.1993 57.059 26.0186 56.9571C28.7774 56.8453 29.8078 55.2395 33.138 55.2395C36.4372 55.2395 37.4039 56.9571 40.2805 56.8922C43.2409 56.8453 45.106 54.3072 46.885 51.7092C48.2096 49.8754 49.2289 47.8486 49.9051 45.704C48.1852 44.9938 46.7175 43.805 45.6849 42.2859C44.6524 40.7668 44.1007 38.9846 44.0987 37.1614Z" fill="white"/>
<path d="M38.6654 21.4523C40.2795 19.5606 41.0747 17.129 40.8822 14.6741C38.4161 14.9269 36.1382 16.0776 34.5023 17.8968C33.7025 18.7855 33.0898 19.8194 32.6995 20.9394C32.3092 22.0594 32.1488 23.2435 32.2275 24.4241C33.4609 24.4365 34.6812 24.1755 35.7963 23.6607C36.9115 23.146 37.8924 22.3909 38.6654 21.4523Z" fill="white"/>
<path d="M65.3937 15.01H69.0405C72.1918 15.01 73.7249 16.8838 73.7249 20.2828C73.7249 23.6819 72.1763 25.5789 69.0405 25.5789H65.3937V15.01ZM67.1513 16.4889V24.1H68.847C70.9375 24.1 71.9208 22.8379 71.9208 20.306C71.9208 17.7587 70.9298 16.4889 68.847 16.4889H67.1513ZM79.2842 17.2554C81.4212 17.2554 82.9155 18.6414 82.9155 20.941V22.0017C82.9155 24.3787 81.4212 25.7182 79.2842 25.7182C77.1162 25.7182 75.6373 24.3942 75.6373 22.0095V20.9487C75.6373 18.711 77.1394 17.2554 79.2842 17.2554ZM79.2919 18.6414C78.0686 18.6414 77.3717 19.6634 77.3717 21.0339V21.9475C77.3717 23.318 78.0221 24.3323 79.2919 24.3323C80.5462 24.3323 81.1889 23.3257 81.1889 21.9475V21.0339C81.1889 19.6634 80.5153 18.6414 79.2919 18.6414ZM95.5362 17.3948L93.3837 25.5789H91.6339L89.9227 19.5395H89.8763L88.1961 25.5789H86.4385L84.1931 17.3948H86.0436L87.3599 23.6354H87.4373L89.0865 17.3948H90.7047L92.4004 23.6354H92.4778L93.8173 17.3948H95.5362ZM97.2396 25.5789V17.3948H98.9275V18.8659H99.0127C99.2217 18.2232 99.8179 17.2709 101.475 17.2709C103.124 17.2709 104.231 18.1845 104.231 20.0505V25.5789H102.512V20.5538C102.512 19.3072 101.862 18.7343 100.894 18.7343C99.6244 18.7343 98.9585 19.7099 98.9585 21.0339V25.5789H97.2396ZM106.833 25.5789V14.4525H108.552V25.5789H106.833ZM114.452 17.2554C116.589 17.2554 118.083 18.6414 118.083 20.941V22.0017C118.083 24.3787 116.589 25.7182 114.452 25.7182C112.284 25.7182 110.805 24.3942 110.805 22.0095V20.9487C110.805 18.711 112.307 17.2554 114.452 17.2554ZM114.459 18.6414C113.236 18.6414 112.539 19.6634 112.539 21.0339V21.9475C112.539 23.318 113.19 24.3323 114.459 24.3323C115.714 24.3323 116.356 23.3257 116.356 21.9475V21.0339C116.356 19.6634 115.683 18.6414 114.459 18.6414ZM122.535 25.7027C120.948 25.7027 119.856 24.7272 119.856 23.2018C119.856 21.7539 120.863 20.7784 122.752 20.7784H124.819V20.0118C124.819 19.075 124.223 18.6336 123.278 18.6336C122.349 18.6336 121.931 19.0208 121.8 19.5627H120.166C120.267 18.1923 121.296 17.2709 123.333 17.2709C125.083 17.2709 126.53 17.9987 126.53 20.0351V25.5789H124.897V24.5181H124.819C124.455 25.1453 123.743 25.7027 122.535 25.7027ZM123.069 24.371C124.045 24.371 124.819 23.7051 124.819 22.8147V21.932H123.023C122.024 21.932 121.583 22.4353 121.583 23.1167C121.583 23.9684 122.295 24.371 123.069 24.371ZM131.826 17.2864C132.98 17.2864 133.863 17.7974 134.18 18.6259H134.265V14.4525H135.984V25.5789H134.312V24.2703H134.227C133.979 25.0988 132.996 25.6873 131.803 25.6873C129.922 25.6873 128.698 24.3478 128.698 22.1875V20.7861C128.698 18.6259 129.945 17.2864 131.826 17.2864ZM132.306 18.6956C131.161 18.6956 130.448 19.5473 130.448 21.0339V21.932C130.448 23.4264 131.168 24.2781 132.345 24.2781C133.507 24.2781 134.265 23.4341 134.265 22.0404V20.8016C134.265 19.5395 133.437 18.6956 132.306 18.6956ZM145.423 17.2554C147.56 17.2554 149.054 18.6414 149.054 20.941V22.0017C149.054 24.3787 147.56 25.7182 145.423 25.7182C143.255 25.7182 141.776 24.3942 141.776 22.0095V20.9487C141.776 18.711 143.278 17.2554 145.423 17.2554ZM145.43 18.6414C144.207 18.6414 143.51 19.6634 143.51 21.0339V21.9475C143.51 23.318 144.161 24.3323 145.43 24.3323C146.685 24.3323 147.327 23.3257 147.327 21.9475V21.0339C147.327 19.6634 146.654 18.6414 145.43 18.6414ZM151.268 25.5789V17.3948H152.956V18.8659H153.042C153.251 18.2232 153.847 17.2709 155.504 17.2709C157.153 17.2709 158.26 18.1845 158.26 20.0505V25.5789H156.541V20.5538C156.541 19.3072 155.891 18.7343 154.923 18.7343C153.653 18.7343 152.987 19.7099 152.987 21.0339V25.5789H151.268ZM164.911 17.449V15.4049H166.591V17.449H168.426V18.7962H166.591V23.1399C166.591 24.0303 166.924 24.2781 167.846 24.2781C168.078 24.2781 168.388 24.2626 168.519 24.2471V25.5634C168.38 25.5866 167.807 25.6331 167.42 25.6331C165.43 25.6331 164.888 24.9207 164.888 23.2793V18.7962H163.641V17.449H164.911ZM170.594 25.5789V14.4525H172.306V18.8659H172.391C172.569 18.2852 173.235 17.2709 174.876 17.2709C176.471 17.2709 177.609 18.1923 177.609 20.0583V25.5789H175.898V20.5616C175.898 19.315 175.209 18.7343 174.233 18.7343C173.002 18.7343 172.306 19.7021 172.306 21.0339V25.5789H170.594ZM183.378 25.7182C181.148 25.7182 179.762 24.3478 179.762 22.0404V20.9332C179.762 18.6104 181.279 17.2554 183.277 17.2554C185.329 17.2554 186.777 18.6801 186.777 20.9332V21.8933H181.465V22.2959C181.465 23.4728 182.162 24.34 183.37 24.34C184.268 24.34 184.887 23.9142 185.004 23.4031H186.684C186.583 24.3478 185.584 25.7182 183.378 25.7182ZM181.465 20.7706H185.097V20.6622C185.097 19.4311 184.376 18.6104 183.285 18.6104C182.193 18.6104 181.465 19.4311 181.465 20.6622V20.7706Z" fill="white"/>
<path d="M67.8869 54.5789H64.3097L71.5879 33.4412H75.5212L82.7839 54.5789H79.0674L77.1936 48.7253H69.7761L67.8869 54.5789ZM73.57 37.0957H73.4307L70.5658 46.0309H76.4039L73.57 37.0957ZM92.6563 54.8111C90.5348 54.8111 88.9243 53.8046 88.0571 52.3025H87.9332V60.0143H84.4954V38.2107H87.8403V40.6109H87.9642C88.8623 39.0469 90.5348 37.9939 92.7337 37.9939C96.4038 37.9939 99.0208 40.7658 99.0208 45.6592V47.1149C99.0208 51.9773 96.4347 54.8111 92.6563 54.8111ZM91.8665 51.9773C94.05 51.9773 95.5366 50.2274 95.5366 46.929V45.7831C95.5366 42.6086 94.1429 40.7968 91.8046 40.7968C89.4043 40.7968 87.9022 42.7479 87.9022 45.7676V46.929C87.9022 50.0261 89.4198 51.9773 91.8665 51.9773ZM110.132 54.8111C108.011 54.8111 106.4 53.8046 105.533 52.3025H105.409V60.0143H101.971V38.2107H105.316V40.6109H105.44C106.338 39.0469 108.011 37.9939 110.209 37.9939C113.88 37.9939 116.497 40.7658 116.497 45.6592V47.1149C116.497 51.9773 113.91 54.8111 110.132 54.8111ZM109.342 51.9773C111.526 51.9773 113.012 50.2274 113.012 46.929V45.7831C113.012 42.6086 111.619 40.7968 109.28 40.7968C106.88 40.7968 105.378 42.7479 105.378 45.7676V46.929C105.378 50.0261 106.896 51.9773 109.342 51.9773ZM123.621 48.7099H127.058C127.213 50.5371 128.824 52.1012 131.812 52.1012C134.553 52.1012 136.179 50.8159 136.179 48.8183C136.179 47.2078 135.095 46.3406 132.835 45.7986L129.366 44.9314C126.64 44.2965 124.194 42.6705 124.194 39.2327C124.194 35.191 127.724 32.9766 131.828 32.9766C135.932 32.9766 139.354 35.191 139.431 39.1398H136.056C135.901 37.3435 134.522 35.8569 131.782 35.8569C129.366 35.8569 127.724 37.0028 127.724 38.9695C127.724 40.3477 128.684 41.3388 130.651 41.7878L134.104 42.6395C137.279 43.4138 139.695 44.9159 139.695 48.5085C139.695 52.6587 136.334 54.997 131.549 54.997C125.665 54.997 123.698 51.5592 123.621 48.7099ZM143.884 38.2107V34.2309H147.26V38.2107H150.45V40.9671H147.26V49.7009C147.26 51.4818 147.926 51.9773 149.768 51.9773C150.063 51.9773 150.341 51.9773 150.543 51.9463V54.5789C150.264 54.6253 149.613 54.6873 148.917 54.6873C144.937 54.6873 143.837 53.2626 143.837 49.9797V40.9671H141.576V38.2107H143.884ZM159.734 37.932C164.441 37.932 166.996 41.2458 166.996 45.7057V47.0219C166.996 51.6366 164.457 54.8576 159.734 54.8576C155.011 54.8576 152.44 51.6366 152.44 47.0219V45.7057C152.44 41.2613 155.026 37.932 159.734 37.932ZM159.734 40.6884C157.178 40.6884 155.909 42.7789 155.909 45.7521V47.0065C155.909 49.9332 157.163 52.0857 159.734 52.0857C162.304 52.0857 163.543 49.9487 163.543 47.0065V45.7521C163.543 42.7634 162.289 40.6884 159.734 40.6884ZM169.9 54.5789V38.2107H173.338V40.3632H173.462C173.88 39.3411 175.103 37.9784 177.38 37.9784C177.829 37.9784 178.216 38.0094 178.541 38.0713V41.1065C178.247 41.0291 177.643 40.9826 177.07 40.9826C174.314 40.9826 173.384 42.686 173.384 44.8849V54.5789H169.9ZM186.88 54.8576C182.498 54.8576 179.711 51.9618 179.711 47.1149V45.4579C179.711 40.8897 182.436 37.932 186.741 37.932C191.108 37.932 193.74 40.9981 193.74 45.6128V47.1768H183.102V47.5639C183.102 50.3203 184.589 52.1476 186.927 52.1476C188.677 52.1476 189.869 51.2804 190.287 49.8713H193.555C193.059 52.5193 190.922 54.8576 186.88 54.8576ZM183.102 44.7765H190.38V44.7456C190.38 42.4227 188.94 40.5955 186.757 40.5955C184.542 40.5955 183.102 42.4227 183.102 44.7456V44.7765Z" fill="white"/>
</svg>

<svg xmlns="http://www.w3.org/2000/svg" width="212" height="72" fill="none"><rect width="209.667" height="68.714" x="1.452" y="1.46" fill="#000" rx="9.69"/><rect width="209.667" height="68.714" x="1.452" y="1.46" stroke="#A6A6A6" stroke-width="1.762" rx="9.69"/><path fill="#fff" d="M44.099 37.161a9.44 9.44 0 0 1 1.282-4.62 9.7 9.7 0 0 1 3.405-3.442 10 10 0 0 0-3.462-3.011 10.3 10.3 0 0 0-4.477-1.18c-3.34-.341-6.577 1.952-8.28 1.952-1.734 0-4.355-1.917-7.177-1.86a10.76 10.76 0 0 0-5.163 1.504 10.44 10.44 0 0 0-3.733 3.793c-3.847 6.502-.978 16.058 2.707 21.314 1.844 2.573 3.998 5.448 6.818 5.346 2.758-.112 3.789-1.718 7.119-1.718 3.3 0 4.266 1.718 7.143 1.653 2.96-.047 4.825-2.585 6.604-5.183a21.1 21.1 0 0 0 3.02-6.005 9.46 9.46 0 0 1-4.22-3.418 9.13 9.13 0 0 1-1.586-5.125M38.665 21.452a9.31 9.31 0 0 0 2.217-6.778 9.94 9.94 0 0 0-6.38 3.223 9 9 0 0 0-1.803 3.042 8.8 8.8 0 0 0-.471 3.485 8.3 8.3 0 0 0 3.568-.763 8.1 8.1 0 0 0 2.87-2.209M65.394 15.01h3.646c3.152 0 4.685 1.874 4.685 5.273s-1.549 5.296-4.684 5.296h-3.647zm1.757 1.479V24.1h1.696c2.09 0 3.074-1.262 3.074-3.794 0-2.547-.991-3.817-3.074-3.817zm12.133.766c2.137 0 3.631 1.386 3.631 3.686v1.06c0 2.378-1.494 3.717-3.63 3.717-2.169 0-3.648-1.324-3.648-3.709v-1.06c0-2.238 1.502-3.694 3.647-3.694m.008 1.386c-1.223 0-1.92 1.022-1.92 2.393v.914c0 1.37.65 2.384 1.92 2.384 1.254 0 1.897-1.006 1.897-2.384v-.914c0-1.37-.674-2.393-1.897-2.393m16.244-1.246-2.152 8.184h-1.75l-1.711-6.04h-.047l-1.68 6.04H86.44l-2.246-8.184h1.85l1.317 6.24h.077l1.65-6.24h1.618l1.695 6.24h.078l1.34-6.24zm1.704 8.184v-8.184h1.688v1.47h.085c.209-.642.805-1.594 2.462-1.594 1.649 0 2.756.913 2.756 2.78v5.528h-1.719v-5.025c0-1.247-.65-1.82-1.618-1.82-1.27 0-1.936.976-1.936 2.3v4.545zm9.593 0V14.453h1.719v11.126zm7.619-8.324c2.137 0 3.631 1.386 3.631 3.686v1.06c0 2.378-1.494 3.717-3.631 3.717-2.168 0-3.647-1.324-3.647-3.709v-1.06c0-2.238 1.502-3.694 3.647-3.694m.007 1.386c-1.223 0-1.92 1.022-1.92 2.393v.914c0 1.37.651 2.384 1.92 2.384 1.255 0 1.897-1.006 1.897-2.384v-.914c0-1.37-.673-2.393-1.897-2.393m8.076 7.062c-1.587 0-2.679-.976-2.679-2.501 0-1.448 1.007-2.424 2.896-2.424h2.067v-.766c0-.937-.596-1.378-1.541-1.378-.929 0-1.347.387-1.478.929h-1.634c.101-1.37 1.13-2.292 3.167-2.292 1.75 0 3.197.728 3.197 2.764v5.544h-1.633v-1.06h-.078c-.364.626-1.076 1.184-2.284 1.184m.534-1.332c.976 0 1.75-.666 1.75-1.556v-.883h-1.796c-.999 0-1.44.503-1.44 1.185 0 .851.712 1.254 1.486 1.254m8.757-7.085c1.154 0 2.037.511 2.354 1.34h.085v-4.174h1.719V25.58h-1.672V24.27h-.085c-.248.829-1.231 1.417-2.424 1.417-1.881 0-3.105-1.34-3.105-3.5v-1.4c0-2.161 1.247-3.5 3.128-3.5m.48 1.41c-1.145 0-1.858.851-1.858 2.338v.898c0 1.494.72 2.346 1.897 2.346 1.162 0 1.92-.844 1.92-2.238v-1.238c0-1.262-.828-2.106-1.959-2.106m13.117-1.44c2.137 0 3.631 1.385 3.631 3.685v1.06c0 2.378-1.494 3.717-3.631 3.717-2.168 0-3.647-1.324-3.647-3.709v-1.06c0-2.238 1.502-3.694 3.647-3.694m.007 1.385c-1.223 0-1.92 1.022-1.92 2.393v.914c0 1.37.651 2.384 1.92 2.384 1.255 0 1.897-1.006 1.897-2.384v-.914c0-1.37-.673-2.393-1.897-2.393m5.838 6.938v-8.184h1.688v1.47h.086c.209-.642.805-1.594 2.462-1.594 1.649 0 2.756.913 2.756 2.78v5.528h-1.719v-5.025c0-1.247-.65-1.82-1.618-1.82-1.27 0-1.936.976-1.936 2.3v4.545zm13.643-8.13v-2.044h1.68v2.044h1.835v1.347h-1.835v4.344c0 .89.333 1.138 1.255 1.138.232 0 .542-.015.673-.03v1.315c-.139.024-.712.07-1.099.07-1.99 0-2.532-.712-2.532-2.354v-4.483h-1.247V17.45zm5.683 8.13V14.453h1.712v4.413h.085c.178-.58.844-1.595 2.485-1.595 1.595 0 2.733.921 2.733 2.787v5.52h-1.711v-5.016c0-1.247-.689-1.828-1.665-1.828-1.231 0-1.927.968-1.927 2.3v4.545zm12.784.14c-2.23 0-3.616-1.371-3.616-3.679v-1.107c0-2.323 1.517-3.678 3.515-3.678 2.052 0 3.5 1.425 3.5 3.678v.96h-5.312v.403c0 1.177.697 2.044 1.905 2.044.898 0 1.517-.426 1.634-.937h1.68c-.101.945-1.1 2.315-3.306 2.315m-1.913-4.948h3.632v-.109c0-1.23-.721-2.052-1.812-2.052s-1.82.821-1.82 2.052zM67.887 54.579H64.31l7.278-21.138h3.933l7.263 21.138h-3.717l-1.873-5.854h-7.418zm5.683-17.483h-.14l-2.864 8.935h5.838zM92.656 54.81c-2.121 0-3.732-1.006-4.599-2.508h-.124v7.711h-3.438V38.211h3.345v2.4h.124c.898-1.564 2.57-2.617 4.77-2.617 3.67 0 6.287 2.772 6.287 7.665v1.456c0 4.862-2.586 7.696-6.365 7.696m-.79-2.834c2.184 0 3.67-1.75 3.67-5.048v-1.146c0-3.174-1.393-4.986-3.731-4.986-2.4 0-3.903 1.95-3.903 4.97v1.162c0 3.097 1.518 5.048 3.965 5.048m18.266 2.834c-2.121 0-3.732-1.006-4.599-2.508h-.124v7.711h-3.438V38.211h3.345v2.4h.124c.898-1.564 2.571-2.617 4.769-2.617 3.671 0 6.288 2.772 6.288 7.665v1.456c0 4.862-2.587 7.696-6.365 7.696m-.79-2.834c2.184 0 3.67-1.75 3.67-5.048v-1.146c0-3.174-1.393-4.986-3.732-4.986-2.4 0-3.902 1.95-3.902 4.97v1.162c0 3.097 1.518 5.048 3.964 5.048m14.279-3.267h3.437c.155 1.827 1.766 3.391 4.754 3.391 2.741 0 4.367-1.285 4.367-3.283 0-1.61-1.084-2.477-3.344-3.02l-3.469-.867c-2.726-.634-5.172-2.26-5.172-5.698 0-4.042 3.53-6.256 7.634-6.256s7.526 2.214 7.603 6.163h-3.375c-.155-1.797-1.534-3.283-4.274-3.283-2.416 0-4.058 1.146-4.058 3.112 0 1.379.96 2.37 2.927 2.819l3.453.852c3.175.774 5.591 2.276 5.591 5.868 0 4.15-3.361 6.489-8.146 6.489-5.884 0-7.851-3.438-7.928-6.287m20.263-10.5v-3.98h3.376v3.98h3.19v2.757h-3.19v8.734c0 1.78.666 2.276 2.508 2.276.295 0 .573 0 .775-.03v2.632c-.279.046-.93.108-1.626.108-3.98 0-5.08-1.424-5.08-4.707v-9.013h-2.261v-2.756zm15.85-.278c4.707 0 7.262 3.314 7.262 7.774v1.316c0 4.615-2.539 7.836-7.262 7.836s-7.294-3.221-7.294-7.836v-1.316c0-4.445 2.586-7.774 7.294-7.774m0 2.756c-2.556 0-3.825 2.09-3.825 5.064v1.255c0 2.926 1.254 5.079 3.825 5.079 2.57 0 3.809-2.137 3.809-5.08v-1.254c0-2.989-1.254-5.064-3.809-5.064m10.166 13.89V38.212h3.438v2.152h.124c.418-1.022 1.641-2.385 3.918-2.385q.674 0 1.161.093v3.035c-.294-.077-.898-.123-1.471-.123-2.756 0-3.686 1.703-3.686 3.902v9.694zm16.98.28c-4.382 0-7.169-2.896-7.169-7.743v-1.657c0-4.568 2.725-7.526 7.03-7.526 4.367 0 6.999 3.066 6.999 7.68v1.565h-10.638v.387c0 2.756 1.487 4.584 3.825 4.584 1.75 0 2.942-.868 3.36-2.277h3.268c-.496 2.648-2.633 4.987-6.675 4.987m-3.778-10.081h7.278v-.031c0-2.323-1.44-4.15-3.623-4.15-2.215 0-3.655 1.827-3.655 4.15z"/></svg>
